static/icons/linkExternal.svg

<svg xmlns="http://www.w3.org/2000/svg" width="24" height="24" viewBox="0 0 24 24">
  <path fill-rule="evenodd" d="M17.5714286,13.2857143 L17.5714286,16.1428571 C17.5714286,17.5625 16.4196429,18.7142857 15,18.7142857 L7.57142857,18.7142857 C6.15178571,18.7142857 5,17.5625 5,16.1428571 L5,8.71428571 C5,7.29464286 6.15178571,6.14285714 7.57142857,6.14285714 L13.8571429,6.14285714 C14.0178571,6.14285714 14.1428571,6.26785714 14.1428571,6.42857143 L14.1428571,7 C14.1428571,7.16071429 14.0178571,7.28571429 13.8571429,7.28571429 L7.57142857,7.28571429 C6.78571429,7.28571429 6.14285714,7.92857143 6.14285714,8.71428571 L6.14285714,16.1428571 C6.14285714,16.9285714 6.78571429,17.5714286 7.57142857,17.5714286 L15,17.5714286 C15.7857143,17.5714286 16.4285714,16.9285714 16.4285714,16.1428571 L16.4285714,13.2857143 C16.4285714,13.125 16.5535714,13 16.7142857,13 L17.2857143,13 C17.4464286,13 17.5714286,13.125 17.5714286,13.2857143 Z M21,5.57142857 L21,10.1428571 C21,10.4553571 20.7410714,10.7142857 20.4285714,10.7142857 C20.2767857,10.7142857 20.1339286,10.6517857 20.0267857,10.5446429 L18.4553571,8.97321429 L12.6339286,14.7946429 C12.5803571,14.8482143 12.5,14.8839286 12.4285714,14.8839286 C12.3571429,14.8839286 12.2767857,14.8482143 12.2232143,14.7946429 L11.2053571,13.7767857 C11.1517857,13.7232143 11.1160714,13.6428571 11.1160714,13.5714286 C11.1160714,13.5 11.1517857,13.4196429 11.2053571,13.3660714 L17.0267857,7.54464286 L15.4553571,5.97321429 C15.3482143,5.86607143 15.2857143,5.72321429 15.2857143,5.57142857 C15.2857143,5.25892857 15.5446429,5 15.8571429,5 L20.4285714,5 C20.7410714,5 21,5.25892857 21,5.57142857 Z"/>
</svg>

<svg xmlns="http://www.w3.org/2000/svg" width="24" height="24">
    <path fill-rule="evenodd" d="M17.571 13.286v2.857A2.572 2.572 0 0 1 15 18.714H7.571A2.572 2.572 0 0 1 5 16.143V8.714a2.572 2.572 0 0 1 2.571-2.571h6.286c.16 0 .286.125.286.286V7c0 .16-.125.286-.286.286H7.571c-.785 0-1.428.643-1.428 1.428v7.429c0 .786.643 1.428 1.428 1.428H15c.786 0 1.429-.642 1.429-1.428v-2.857c0-.161.125-.286.285-.286h.572c.16 0 .285.125.285.286zM21 5.57v4.572a.575.575 0 0 1-.571.571.568.568 0 0 1-.402-.17l-1.572-1.57-5.821 5.82a.308.308 0 0 1-.205.09.308.308 0 0 1-.206-.09l-1.018-1.017a.308.308 0 0 1-.089-.206c0-.071.036-.151.09-.205l5.82-5.821-1.57-1.572a.568.568 0 0 1-.17-.402c0-.312.259-.571.571-.571h4.572c.312 0 .571.259.571.571z"/>
</svg>
